X: 8024
T: Connemara, The
R: mazurka
M: 3/4
K: Dmajor
|:B/|A>F F2 d>A|B>d A>F G>B|A>F (3FFF d>A|(3Bcd A>F D3/2:|
g/|f>d d>c d>=f|e>=c c>B c>g|f>d d>c d>A|B>d A>F G>g|
f>d d>c d2|e>=c c>B c2|f>d e>c d>A|(3Bcd e>c d3/2||

